X:1
T:The Holy Ground
M:4/4
L:1/8
K:D
 z4 z2 DE| F3 AA-GE-C| D3- E D2 E2| F2 A2A-GE-C| D6 FG| A2 A2 B2 cc|\
 d2 d2 c2 BB| A2 F2D-E F2| E6D-E| F3 AA-GE-C| D3- E D2 E2| F2 A2 B2 c2|\
 d6 A2| d3 c B2 A2| B2 A2 F2D-E| F3 AA-GE-C| D2| DE
M:4/4
| F2 A2 B2 c2| d6 A2| d3 c B2 A2| B2 A2 F2D-E| F3 AA-GE-C| D6 z2|
